tools/download-figma-icons/icons/outlined-large/single.svg

<svg width="64" height="64" viewBox="0 0 64 64" fill="none" xmlns="http://www.w3.org/2000/svg">
<path d="M47.5145 43.2081C47.1035 42.3078 43.9655 35.916 36.7772 33.8154C39.0931 31.9748 40.617 28.834 40.617 25.2729C40.617 19.6113 36.7571 15 32.005 15C27.2529 15 23.3931 19.6113 23.3931 25.2729C23.3931 28.834 24.917 31.9748 27.2329 33.8154C20.0445 35.916 16.9065 42.2978 16.4955 43.2081C15.8639 44.2984 14.6207 46.8491 15.6333 48.6096C15.9341 49.1298 16.686 50 18.3703 50H45.6297C47.314 50 48.076 49.1298 48.3667 48.6096C49.3793 46.8491 48.1361 44.3084 47.5045 43.2081H47.5145ZM26.4007 25.2629C26.4007 21.2518 28.9171 17.9909 32.005 17.9909C35.0929 17.9909 37.6093 21.2518 37.6093 25.2629C37.6093 29.2741 35.0929 32.535 32.005 32.535C28.9171 32.535 26.4007 29.2741 26.4007 25.2629ZM45.6398 46.9991H18.3703C18.3703 46.9991 18.28 46.9991 18.25 46.9991C18.27 46.539 18.6009 45.5587 19.1322 44.6485L19.2124 44.4784C19.3628 44.1383 22.9519 36.126 31.995 36.126C41.038 36.126 44.6272 44.1183 44.7776 44.4784L44.8578 44.6485C45.3891 45.5487 45.72 46.539 45.74 46.9991C45.7099 46.9991 45.6598 46.9991 45.6197 46.9991H45.6398Z" fill="black"/>
</svg>

<svg width="64" height="64" viewBox="0 0 64 64" fill="none" xmlns="http://www.w3.org/2000/svg"><path d="M47.514 43.208c-.41-.9-3.549-7.292-10.737-9.393 2.316-1.84 3.84-4.981 3.84-8.542 0-5.662-3.86-10.273-8.612-10.273-4.752 0-8.612 4.611-8.612 10.273 0 3.561 1.524 6.702 3.84 8.542-7.189 2.101-10.326 8.483-10.738 9.393-.631 1.09-1.874 3.641-.862 5.402.301.52 1.053 1.39 2.737 1.39h27.26c1.684 0 2.446-.87 2.737-1.39 1.012-1.76-.23-4.302-.862-5.402h.01ZM26.401 25.263c0-4.011 2.516-7.272 5.604-7.272s5.604 3.26 5.604 7.272c0 4.011-2.516 7.272-5.604 7.272s-5.604-3.26-5.604-7.272ZM45.64 46.999H18.25c.02-.46.35-1.44.882-2.35l.08-.17c.15-.34 3.74-8.353 12.783-8.353s12.632 7.992 12.783 8.352l.08.17c.531.9.862 1.891.882 2.351h-.12.02Z" fill="currentColor"/></svg>
